X:1
T:Gathering in the Sheaves
T:Gathering in the Sheaves
T:J. M. Pierce
T:Nim J. Orr, 1906
T:Public Domain Courtesy of the Cyber Hymnal™
T:Public Domain Courtesy of the Cyber Hymnal™
C:J. M. Pierce
Z:Public Domain
Z:Courtesy of the Cyber Hymnal™
%%score ( 1 2 ) ( 3 4 )
L:1/8
Q:1/4=95
M:4/4
K:Bb
V:1 treble 
V:2 treble 
V:3 bass 
V:4 bass 
V:1
 [B,D]>[CE] [DF]>[EG] [DF]2 [DB]2 | [Fd]>[Ec] [DB]>[EG] [EG]2 [DF]2 | %2
w: 1.~While the dews of morn- ing,|Ver- dant fields a- dorn- ing,|
w: 2.~While the day is go- ing,|Love for God is flow- ing,|
w: 3.~If the day is drear- y,|And the feet grow wear- y|
 [CE]>[=B,D] [CE]>[DF] [CE]2 [Ec]2 | [=Ec]>[EB] [EA]>[EG] F4 |S [B,D]>[CE] [DF]>[EG] [DF]2 [DB]2 | %5
w: E’er the glor- ious sun- light,|Dries the dew- y leaves;|Thus with hearts of glad- ness,|
w: Like the sum- mer love- ly,|Grand- est beau- ty weaves;|Songs of praise re- sound- ing,|
w: Then the ear- nest la- borers,|Great- est joy re- ceive;|He that sows in sor- row,|
 [Fd]>[DB] [Ec]>[Fd] [Ge]2 [EG]2 | [Gc]>[GB] [FA]>[EG] [DF]2 [DB]2 | %7
w: Leav- ing care and sad- ness,|Hast- en now the reap- ers|
w: Bu- sy work- ers bound- ing,|Hast- ening in the har- vest,|
w: Joy- ful reaps to- mor- row,|With the ho- ly an- gels|
 [Fd]>[DB] [Ec]>[Ec] [DB]4!fine! ||"^Refrain" [FA]>[FB] [Fc]>[Fd] [Fc]4 | %9
w: Gath- ering in the sheaves.||
w: Gath- ering in the sheaves.|Gath- ering in the sheaves,|
w: Gath- ering i the sheaves.||
 [DB]>[Ec] [Fd]>[Ge] [Fd]4 | [EG]>[EG] [EG]>[EG] [=Ec]2 [EB]2 | [=EA]>[EB] [EA]>[EG] F4!D.S.! |] %12
w: |||
w: Gath- ering in the sheaves,|See the bu- sy reap- ers|Gath- ering in the sheaves.|
w: |||
V:2
 x8 | x8 | x8 | x4 (F2 _E2) | x8 | x8 | x8 | x8 || x8 | x8 | x8 | x4 (F2 _E2) |] %12
V:3
 [B,,F,]>[B,,F,] [B,,B,]>[B,,B,] [B,,B,]2 [B,,F,]2 | %1
 [B,,B,]>[B,,B,] [B,,B,]>[B,,B,] [B,,B,]2 [B,,B,]2 | F,>F, F,>F, [F,A,]2 [F,A,]2 | %3
 [C,G,]>[C,G,] [C,C]>[C,B,] [F,A,]4 | [B,,F,]>[B,,F,] [B,,B,]>[B,,B,] [B,,B,]2 [B,,F,]2 | %5
 [B,,B,]>[B,,B,] [B,,B,]>[B,,B,] [E,B,]2 [E,B,]2 | [E,B,]>[E,B,] [E,B,]>[E,B,] [F,B,]2 [F,B,]2 | %7
 [F,B,]>[F,B,] [F,A,]>[F,A,] [B,,B,]4 || [F,C]>[F,B,] [F,A,]>[F,B,] [F,A,]4 | %9
 [B,,B,]>[B,,B,] [B,,B,]>[B,,B,] [B,,B,]4 | [E,B,]>[E,B,] [E,B,]>[E,B,] [C,B,]2 [C,D]2 | %11
 [C,B,]>[C,B,] [C,B,]>[C,B,] [F,A,]4 |] %12
V:4
 x8 | x8 | F,>F, F,>F, x4 | x8 | x8 | x8 | x8 | x8 || x8 | x8 | x8 | x8 |] %12

